!!!OTL: 1123. Trinks gar aus!
!!!ARE: Europa, Mitteleuropa, Deutschland
!!!SCT: E1123
!!!TXL: @@DE
!!!YEM: Copyright 1995, estate of Helmut Schaffrath.
**kern	**text
*ICvox	*
*M4/4	*
*met(c|)	*
*k[b-]	*
*F:	*
!LO:TX:a:t=Fink 1536. Rr. 45. Forſter II, 1540. Nr. 41.	!
{4f	So
=1	=1
4a	trin-
4a	-ken
2b-	wir
=2	=2
2cc	al-
2a}	-le
=3	=3
{4b-	die-
4b-	-ſen
4cc	Wein
8b-L	mit
8aJ	.
=4	=4
2g	Schal-
4f	-le.
4r}	.
=5	=5
{4b-	Die-
4b-	-ſer
4b-	Wein
4g	für
=6	=6
4a	an-
4a	-der
4a}	Wein
{4f	iſt
=7	=7
4g	al-
4f	-ler
4b-	Wein
4a	ein
=8	=8
2g	Für-
4f	-ſte.
4r}	.
=9	=9
{4b-	Trink,
4b-	mein
4b-	lie-
4g	-bes
=10	=10
4a	Die-
4a	-ter-
4a}	-lein,
{4f	ſo
=11	=11
4g	wird
4f	dich
4b-	nim-
4a	-mer
=12	=12
2g	dür-
4f}	-ſten!
{4f	Trinks
=13	=13
2f	gar
4.c	aus!
8f	trinks
=14	=14
2f	gar
4.c	aus!
8f	trinks
=15	=15
2f	gar!
4c;}	.
==	==
!!!AGN: Trink -, Zech - Lied
!!!ONB: ESAC (Essen Associative Code) Database: ERK3
!!!AMT: simple quadruple
!!!AIN: vox
!!!EED: Helmut Schaffrath
!!!EEV: 1.0
!!!GTL: Trink- und Zechlieder.
!!!URL-scan: https://rosdok.uni-rostock.de/mcrviewer/recordIdentifier/rosdok_ppn745177999/iview2/phys_0064.iview2?x=188.1684953369795&y=2133.0620859443443&scale=0.701185927818147&rotation=0&layout=singlePageLayout
!!!ENC: Anna Maria Matuszewska
!!!EEV: 2024/12/23
*-	*-
